X: 584
T: Dokunma Kalbime
C: Gavsi Baykara
O: Turkey
F: http://compmusic.upf.edu/node/140
N: suzinak-zirgule--sarki--duyek--dokunma_kalbime--gavsi_baykara
N: makam= suzinak-zirgule
N: form= sarki
N: usul= duyek = 8/4
M: 8/4
L: 1/16
K: C _1/4B _7/8e _7/8A ^f
Q: 1/4=120
%%MIDI tuningsystem comma53
f2 g4 d2 e3d c4  | Bc de dc cB BA AG G3/2F/ G/A/B/c/  | 
w:  ARANAĞME  |   | 
d3/2e/ d{e}c c3/2d/ c{d}B B3/2c/ BA A3/2B/ AG  | \
w:   | 
GG2A B2 c2 d2 e2 f2 g2  | 
w:   | 
f2 g4 d2 e3d c4  | Bc de dc cB BA AG G3/2F/ G/A/B/c/  | 
w:  ARANAĞME  |   | 
d3/2e/ d{e}c c3/2d/ c{d}B B3/2c/ BA A3/2B/ AG  | \
w:   | 
G6 de dc BA G4  | 
w:   | 
G2 B4 c2 d2 c{d}B f2 ed  | {e}d6 f2 e3/2f/ e{f}d {e}c4  | \
w:  Do kun ma  kal *  *  *  *  bi  |  *  me  *  zi *  *  *  *  *  râ   | 
=a2 g4 {a}gf f3/2g/ fe fe ed  | 
w:  çok_ in *  ce *  dir  *  *  *  kı *  rı  | 
d6 B2 c2 BA G2 c/d/e/f/  | g2 g4 df ed c2 d3/2f/ e{f}d  | 
w:  lır  *  *  *  *  *  SAZ  |  *  in ce *  dir  *  *  kı *  rı  | 
{e}d6 Bc dB cA G4  | G2 B4 c2 d2 c{d}B f2 ed  | \
w:  *  lır   SAZ  |  Do kun ma  kal *  *  *  *  bi  | 
{e}d6 f2 e3/2f/ e{f}d {e}c4  | 
w:  *  me  *  zi *  *  *  *  *  râ   | 
=a2 g4 {a}gf f3/2g/ fe fe ed  | d6 B2 c2 BA G2 c/d/e/f/  | 
w:  çok_ in *  ce *  dir  *  *  *  kı *  rı  |  lır  *  *  *  *  *  SAZ  | 
g2 g4 df ed c2 d3/2f/ e{f}d  | {e}d6 cd e3/2d/ ef g4  | \
w:  *  in ce *  dir  *  *  kı *  rı  |  *  lır   SAZ  | 
f2 g4 df e3/2d/ ce dc c2  | 
w:  O  tıp kı  *  mâ *  *  *  be *  de   | 
z=f2_1/4e f2 a2 g^f _7/8ed cB c2  | \
w:  ben *  *  *  zer   | 
d2 e4 ed d3/2e/ d{e}c dc {d}cB  | 
w:  ki  or da  *  hıç *  *  *  *  kı *  *  rı  | 
B6 AB c2 B{c}A G2 G/A/B/c/  | d2 d2 c2 d2 B3A BA AG  | 
w:  lır  *  *  *  *  *  *  *  SAZ  |  *  or *  da  hıç *  kı *  rı  | 
G6 cd e3/2d/ ef g4  | f2 g4 df e3/2d/ ce dc c2  | \
w:  lır   SAZ  |  O  tıp kı  *  mâ *  *  *  be *  de   | 
z=f2_1/4e f2 a2 g^f _7/8ed cB c2  | 
w:  ben *  *  *  zer   | 
d2 e4 ed d3/2e/ d{e}c dc {d}cB  | \
w:  ki  or da  *  hıç *  *  *  *  kı *  *  rı  | 
B6 AB c2 B{c}A G2 G/A/B/c/  | 
w:  lır  *  *  *  *  *  *  *  SAZ  | 
d2 d2 c2 d2 B3A BA AG  | G6 d2 e3/2d/ ^ce d4  | \
w:  *  or *  da  hıç *  kı *  rı  |  lır   SAZ  | 
^c2 d4 f2 e6 g2  | 
w:  Gü ler sen_ aş kı  | 
f6 =a2 g4 d4  | _b2 =a2 g2 {a}g{a}f f3/2g/ fe fe ed  | \
w:  ma  *  gön lüm   |  ha râb_ *  *  o *  *  lur  *  *  *  yı *  kı  | 
d6 B2 c2 BA G4  | 
w:  lır   | 
f2 g4 df e3/2d/ c2 d3/2f/ ed  | d6 cd e3/2d/ ef g4  | \
w:  ha râb_ o *  lur  *  *  yı *  kı  |  lır   SAZ  | 
f2 g4 df e3/2d/ ce dc c2  | 
w:  O  tıp kı  *  mâ *  *  *  be *  de   | 
z=f2_1/4e f2 a2 g^f _7/8ed cB c2  | \
w:  ben *  *  *  zer   | 
d2 e4 ed d3/2e/ d{e}c dc {d}cB  | 
w:  ki  or da  *  hıç *  *  *  *  kı *  *  rı  | 
B6 AB c2 B{c}A G2 G/A/B/c/  | d2 d2 c2 d2 B3A BA AG  | 
w:  lır  *  *  *  *  *  *  *  SAZ  |  *  or *  da  hıç *  kı *  rı  | 
G6 |
w:  lır    | 


